public/img/icons/hymio.svg

<?xml version="1.0" encoding="UTF-8"?>
<svg width="20px" height="20px" viewBox="0 0 20 20" version="1.1" xmlns="http://www.w3.org/2000/svg" xmlns:xlink="http://www.w3.org/1999/xlink">
    <!-- Generator: Sketch 61 (89581) - https://sketch.com -->
    <title>Hymio</title>
    <desc>Created with Sketch.</desc>
    <defs>
        <path d="M9.99,0 C15.52,0 20,4.48 20,10 C20,15.52 15.52,20 9.99,20 C4.47,20 0,15.52 0,10 C0,4.48 4.47,0 9.99,0 Z M10,2 C5.58,2 2,5.58 2,10 C2,14.42 5.58,18 10,18 C14.42,18 18,14.42 18,10 C18,5.58 14.42,2 10,2 Z M6.55,12 C7.25,13.19 8.52,14 10,14 C11.48,14 12.76,13.19 13.45,12 L13.45,12 L15.12,12 C14.32,14.05 12.33,15.5 10,15.5 C7.67,15.5 5.68,14.05 4.88,12 L4.88,12 Z M13.5,6 C14.3284271,6 15,6.67157288 15,7.5 C15,8.32842712 14.3284271,9 13.5,9 C12.6715729,9 12,8.32842712 12,7.5 C12,6.67157288 12.6715729,6 13.5,6 Z M6.5,6 C7.32842712,6 8,6.67157288 8,7.5 C8,8.32842712 7.32842712,9 6.5,9 C5.67157288,9 5,8.32842712 5,7.5 C5,6.67157288 5.67157288,6 6.5,6 Z" id="path-1"></path>
    </defs>
    <g id="ASSETIT-+-tekstityylit" stroke="none" stroke-width="1" fill="none" fill-rule="evenodd">
        <g id="Ryhma-Copy-43">
            <g id="Värit/Tumma-harmaa">
                <mask id="mask-2" fill="white">
                    <use xlink:href="#path-1"></use>
                </mask>
                <use id="Mask" fill="#000000" fill-rule="nonzero" xlink:href="#path-1"></use>
            </g>
        </g>
    </g>
</svg>

<svg width="20" height="20" xmlns="http://www.w3.org/2000/svg" xmlns:xlink="http://www.w3.org/1999/xlink">
    <defs>
        <path d="M9.99 0C15.52 0 20 4.48 20 10S15.52 20 9.99 20C4.47 20 0 15.52 0 10S4.47 0 9.99 0zM10 2c-4.42 0-8 3.58-8 8s3.58 8 8 8 8-3.58 8-8-3.58-8-8-8zM6.55 12c.7 1.19 1.97 2 3.45 2 1.48 0 2.76-.81 3.45-2h1.67a5.495 5.495 0 01-10.24 0zm6.95-6a1.5 1.5 0 110 3 1.5 1.5 0 010-3zm-7 0a1.5 1.5 0 110 3 1.5 1.5 0 010-3z" id="a"/>
    </defs>
    <use xlink:href="#a"/>
</svg>
